X: 1
T: Hanuman's
M: 6/8
L: 1/8
R: jig
K: Emin
|:A | Bee f2 e | dBG ABA | ~G3 FGB | AGA ~B3 |
Bee f2 e | dBG ABA | ~G3 FdD | FED E2 :|
|: D | CEG c3 | DFA d3 | eBG EGB | e3 efg |
gfe fed | BAG FGA | BAG FdD | FED E2 :|
